icons/nodes_number_range.svg

<?xml version="1.0" encoding="UTF-8" standalone="no"?>
<!DOCTYPE svg PUBLIC "-//W3C//DTD SVG 1.1//EN" "http://www.w3.org/Graphics/SVG/1.1/DTD/svg11.dtd">
<svg width="100%" height="100%" viewBox="0 0 64 64" version="1.1" xmlns="http://www.w3.org/2000/svg" xmlns:xlink="http://www.w3.org/1999/xlink" xml:space="preserve" xmlns:serif="http://www.serif.com/" style="fill-rule:evenodd;clip-rule:evenodd;stroke-linejoin:round;">
    <g transform="matrix(2.29751,0,0,2.10229,-102.787,-43.4679)">
        <g id="path3057" transform="matrix(0.529363,0,0,0.529365,18.774,9.35426)">
            <path d="M53.507,27.518L57.187,26.638L57.187,45.718L53.947,45.718C52.107,45.718 51.267,45.798 51.267,47.078C51.267,47.998 51.787,48.478 52.827,48.478L64.507,48.478C65.547,48.478 66.067,47.998 66.067,47.078C66.067,45.798 65.227,45.718 63.387,45.718L60.267,45.718L60.267,24.598C60.267,23.798 59.947,23.318 59.467,23.318C59.227,23.318 58.947,23.358 58.627,23.438L52.827,24.998C51.987,25.238 51.547,25.718 51.547,26.358C51.547,27.078 52.067,27.598 52.907,27.598C53.107,27.598 53.307,27.558 53.507,27.518Z" style="fill:rgb(211,215,207);fill-rule:nonzero;stroke:rgb(46,52,54);stroke-width:1.72px;"/>
        </g>
        <g id="text3259" transform="matrix(0.492121,0,0,0.513843,41.2963,21.4972)">
            <path id="path3264" d="M49.491,41.971C50.171,36.451 52.891,33.051 56.931,32.291C59.691,31.771 61.691,32.651 61.691,30.811C61.691,29.691 60.851,29.491 58.571,29.491C51.131,29.491 46.131,35.291 46.131,44.211C46.131,51.091 49.531,55.411 54.611,55.411C58.971,55.411 62.051,52.011 62.051,47.291C62.051,42.651 58.651,39.251 54.651,39.251C52.611,39.251 50.891,40.171 49.491,41.971ZM49.931,47.171C49.931,44.171 51.811,42.091 54.291,42.091C56.851,42.091 58.731,44.251 58.731,47.451C58.731,50.611 56.891,52.611 54.451,52.611C51.891,52.611 49.931,50.491 49.931,47.171" style="fill:rgb(211,215,207);fill-rule:nonzero;stroke:rgb(46,52,54);stroke-width:1.81px;stroke-linecap:square;"/>
        </g>
        <g id="text3222" transform="matrix(0.521887,0,0,0.526852,28.8577,21.0711)">
            <path id="path3227" d="M52.948,38.931L52.948,32.611L61.788,32.611C62.988,32.611 63.668,32.051 63.668,31.091C63.668,30.091 63.068,29.571 61.788,29.571L51.908,29.571C50.668,29.571 50.108,29.851 50.108,30.771L50.108,40.491C50.108,41.731 50.228,42.491 51.188,42.491C52.348,42.491 53.628,40.731 56.668,40.731C59.788,40.731 62.108,43.171 62.108,46.371C62.108,49.611 59.788,52.011 56.228,52.011C53.188,52.011 51.028,50.491 50.068,50.491C49.308,50.491 48.708,51.131 48.708,51.811C48.708,53.411 51.828,54.851 56.428,54.851C61.748,54.851 65.388,51.131 65.388,46.251C65.388,41.611 62.068,38.011 57.428,38.011C56.068,38.011 54.588,38.331 52.948,38.931Z" style="fill:rgb(211,215,207);fill-rule:nonzero;stroke:rgb(46,52,54);stroke-width:1.74px;"/>
        </g>
        <g id="text3133" transform="matrix(0.484812,0,0,0.528524,18.8941,23.5348)">
            <path id="path3138" d="M63.021,50.016L69.341,50.016C70.381,50.016 70.901,49.536 70.901,48.616C70.901,47.536 70.261,47.256 68.701,47.256L68.021,47.256L68.021,43.976L69.661,43.976C70.501,43.976 70.741,43.616 70.901,42.776L71.061,41.976C71.141,41.656 71.141,41.416 71.141,41.296C71.141,40.736 70.741,40.336 70.221,40.336C69.581,40.336 69.821,41.016 69.021,41.016L68.021,41.016L68.021,26.176C68.021,25.576 67.821,25.256 67.421,25.176L65.421,24.856C65.221,24.816 65.061,24.816 64.901,24.816C64.461,24.816 64.261,24.976 63.941,25.536L55.701,39.536C55.381,40.056 54.981,40.496 54.981,41.416L54.981,42.776C54.981,43.576 55.381,43.976 56.021,43.976L65.141,43.976L65.141,47.256L62.861,47.256C61.861,47.256 61.421,47.656 61.421,48.616C61.421,49.736 61.861,50.016 63.021,50.016M65.141,41.016L57.741,41.016L65.141,27.776L65.141,41.016Z" style="fill:rgb(211,215,207);fill-rule:nonzero;stroke:rgb(46,52,54);stroke-width:1.8px;"/>
        </g>
        <g id="text3096" transform="matrix(0.481239,0,0,0.513843,38.5449,7.98147)">
            <path id="path3101" d="M63.884,38.534C66.604,37.574 67.844,35.814 67.844,33.094C67.844,29.614 64.964,26.694 60.764,26.694C56.804,26.694 53.724,28.934 53.724,30.254C53.724,30.974 54.284,31.494 55.004,31.494C56.204,31.494 57.684,29.414 60.564,29.414C62.884,29.414 64.604,31.134 64.604,33.654C64.604,35.574 63.244,37.054 61.204,37.374C59.164,37.694 58.564,37.414 58.564,38.854C58.564,40.574 59.604,40.014 61.604,40.374C63.964,40.814 65.364,42.534 65.364,44.854C65.364,47.614 63.284,49.614 60.124,49.614C57.004,49.614 55.004,47.614 53.844,47.614C53.044,47.614 52.404,48.174 52.404,48.974C52.404,50.734 55.844,52.614 60.004,52.614C65.244,52.614 68.684,49.294 68.684,44.854C68.684,41.694 66.964,39.374 63.884,38.534Z" style="fill:rgb(211,215,207);fill-rule:nonzero;stroke:rgb(46,52,54);stroke-width:1.83px;"/>
        </g>
        <g transform="matrix(0.481239,0,0,0.526852,28.5527,6.60278)">
            <g id="text3059">
                <path id="path3064" d="M56.701,53.932L69.581,53.932C70.181,53.932 70.621,53.492 70.701,52.652L70.901,51.132C70.901,51.012 70.941,50.852 70.941,50.732C70.941,49.692 70.381,49.132 69.541,49.132C68.701,49.132 68.181,49.692 68.061,50.852L59.141,50.852L61.541,48.532C66.621,43.492 70.781,40.532 70.781,35.892C70.781,31.812 67.541,28.652 63.181,28.652C60.541,28.652 57.941,29.692 56.301,31.292C55.701,31.892 55.661,32.252 55.661,33.012C55.661,34.372 55.861,35.052 56.821,35.052C58.181,35.052 58.461,33.892 58.941,33.252C59.821,32.092 61.461,31.372 63.101,31.372C65.621,31.372 67.381,33.252 67.381,36.052C67.381,39.332 64.101,42.052 58.981,46.892C56.221,49.532 54.661,50.852 54.661,52.212C54.661,53.412 55.341,53.932 56.701,53.932" style="fill:rgb(211,215,207);fill-rule:nonzero;stroke:rgb(46,52,54);stroke-width:1.81px;stroke-linejoin:miter;"/>
            </g>
        </g>
    </g>
</svg>

<?xml version="1.0" encoding="UTF-8" standalone="no"?>
<svg
   width="32"
   height="32"
   viewBox="0 0 32 32"
   version="1.1"
   xml:space="preserve"
   style="clip-rule:evenodd;fill-rule:evenodd;stroke-linejoin:round"
   id="svg1561"
   sodipodi:docname="nodes_number_range.svg"
   inkscape:version="1.1.2 (b8e25be833, 2022-02-05)"
   xmlns:inkscape="http://www.inkscape.org/namespaces/inkscape"
   xmlns:sodipodi="http://sodipodi.sourceforge.net/DTD/sodipodi-0.dtd"
   xmlns="http://www.w3.org/2000/svg"
   xmlns:svg="http://www.w3.org/2000/svg"><defs
   id="defs1565" /><sodipodi:namedview
   id="namedview1563"
   pagecolor="#ffffff"
   bordercolor="#666666"
   borderopacity="1.0"
   inkscape:pageshadow="2"
   inkscape:pageopacity="0.0"
   inkscape:pagecheckerboard="0"
   showgrid="false"
   inkscape:zoom="12.171875"
   inkscape:cx="32"
   inkscape:cy="32"
   inkscape:window-width="1920"
   inkscape:window-height="1001"
   inkscape:window-x="-9"
   inkscape:window-y="-9"
   inkscape:window-maximized="1"
   inkscape:current-layer="svg1561" />
    <g
   transform="matrix(1.1779841,0,0,1.0778905,-53.142653,-22.624304)"
   id="g1559">
        <g
   id="path3057"
   transform="matrix(0.529363,0,0,0.529365,18.774,9.35426)">
            <path
   d="m 53.507,27.518 3.68,-0.88 v 19.08 h -3.24 c -1.84,0 -2.68,0.08 -2.68,1.36 0,0.92 0.52,1.4 1.56,1.4 h 11.68 c 1.04,0 1.56,-0.48 1.56,-1.4 0,-1.28 -0.84,-1.36 -2.68,-1.36 h -3.12 v -21.12 c 0,-0.8 -0.32,-1.28 -0.8,-1.28 -0.24,0 -0.52,0.04 -0.84,0.12 l -5.8,1.56 c -0.84,0.24 -1.28,0.72 -1.28,1.36 0,0.72 0.52,1.24 1.36,1.24 0.2,0 0.4,-0.04 0.6,-0.08 z"
   style="fill:#d3d7cf;fill-rule:nonzero;stroke:#2e3436;stroke-width:1.72px"
   id="path1544" />
        </g>
        <g
   id="text3259"
   transform="matrix(0.492121,0,0,0.513843,41.2963,21.4972)">
            <path
   id="path3264"
   d="m 49.491,41.971 c 0.68,-5.52 3.4,-8.92 7.44,-9.68 2.76,-0.52 4.76,0.36 4.76,-1.48 0,-1.12 -0.84,-1.32 -3.12,-1.32 -7.44,0 -12.44,5.8 -12.44,14.72 0,6.88 3.4,11.2 8.48,11.2 4.36,0 7.44,-3.4 7.44,-8.12 0,-4.64 -3.4,-8.04 -7.4,-8.04 -2.04,0 -3.76,0.92 -5.16,2.72 z m 0.44,5.2 c 0,-3 1.88,-5.08 4.36,-5.08 2.56,0 4.44,2.16 4.44,5.36 0,3.16 -1.84,5.16 -4.28,5.16 -2.56,0 -4.52,-2.12 -4.52,-5.44"
   style="fill:#d3d7cf;fill-rule:nonzero;stroke:#2e3436;stroke-width:1.81px;stroke-linecap:square" />
        </g>
        <g
   id="text3222"
   transform="matrix(0.521887,0,0,0.526852,28.8577,21.0711)">
            <path
   id="path3227"
   d="m 52.948,38.931 v -6.32 h 8.84 c 1.2,0 1.88,-0.56 1.88,-1.52 0,-1 -0.6,-1.52 -1.88,-1.52 h -9.88 c -1.24,0 -1.8,0.28 -1.8,1.2 v 9.72 c 0,1.24 0.12,2 1.08,2 1.16,0 2.44,-1.76 5.48,-1.76 3.12,0 5.44,2.44 5.44,5.64 0,3.24 -2.32,5.64 -5.88,5.64 -3.04,0 -5.2,-1.52 -6.16,-1.52 -0.76,0 -1.36,0.64 -1.36,1.32 0,1.6 3.12,3.04 7.72,3.04 5.32,0 8.96,-3.72 8.96,-8.6 0,-4.64 -3.32,-8.24 -7.96,-8.24 -1.36,0 -2.84,0.32 -4.48,0.92 z"
   style="fill:#d3d7cf;fill-rule:nonzero;stroke:#2e3436;stroke-width:1.74px" />
        </g>
        <g
   id="text3133"
   transform="matrix(0.484812,0,0,0.528524,18.8941,23.5348)">
            <path
   id="path3138"
   d="m 63.021,50.016 h 6.32 c 1.04,0 1.56,-0.48 1.56,-1.4 0,-1.08 -0.64,-1.36 -2.2,-1.36 h -0.68 v -3.28 h 1.64 c 0.84,0 1.08,-0.36 1.24,-1.2 l 0.16,-0.8 c 0.08,-0.32 0.08,-0.56 0.08,-0.68 0,-0.56 -0.4,-0.96 -0.92,-0.96 -0.64,0 -0.4,0.68 -1.2,0.68 h -1 v -14.84 c 0,-0.6 -0.2,-0.92 -0.6,-1 l -2,-0.32 c -0.2,-0.04 -0.36,-0.04 -0.52,-0.04 -0.44,0 -0.64,0.16 -0.96,0.72 l -8.24,14 c -0.32,0.52 -0.72,0.96 -0.72,1.88 v 1.36 c 0,0.8 0.4,1.2 1.04,1.2 h 9.12 v 3.28 h -2.28 c -1,0 -1.44,0.4 -1.44,1.36 0,1.12 0.44,1.4 1.6,1.4 m 2.12,-9 h -7.4 l 7.4,-13.24 z"
   style="fill:#d3d7cf;fill-rule:nonzero;stroke:#2e3436;stroke-width:1.8px" />
        </g>
        <g
   id="text3096"
   transform="matrix(0.481239,0,0,0.513843,38.5449,7.98147)">
            <path
   id="path3101"
   d="m 63.884,38.534 c 2.72,-0.96 3.96,-2.72 3.96,-5.44 0,-3.48 -2.88,-6.4 -7.08,-6.4 -3.96,0 -7.04,2.24 -7.04,3.56 0,0.72 0.56,1.24 1.28,1.24 1.2,0 2.68,-2.08 5.56,-2.08 2.32,0 4.04,1.72 4.04,4.24 0,1.92 -1.36,3.4 -3.4,3.72 -2.04,0.32 -2.64,0.04 -2.64,1.48 0,1.72 1.04,1.16 3.04,1.52 2.36,0.44 3.76,2.16 3.76,4.48 0,2.76 -2.08,4.76 -5.24,4.76 -3.12,0 -5.12,-2 -6.28,-2 -0.8,0 -1.44,0.56 -1.44,1.36 0,1.76 3.44,3.64 7.6,3.64 5.24,0 8.68,-3.32 8.68,-7.76 0,-3.16 -1.72,-5.48 -4.8,-6.32 z"
   style="fill:#d3d7cf;fill-rule:nonzero;stroke:#2e3436;stroke-width:1.83px" />
        </g>
        <g
   transform="matrix(0.481239,0,0,0.526852,28.5527,6.60278)"
   id="g1557">
            <g
   id="text3059">
                <path
   id="path3064"
   d="m 56.701,53.932 h 12.88 c 0.6,0 1.04,-0.44 1.12,-1.28 l 0.2,-1.52 c 0,-0.12 0.04,-0.28 0.04,-0.4 0,-1.04 -0.56,-1.6 -1.4,-1.6 -0.84,0 -1.36,0.56 -1.48,1.72 h -8.92 l 2.4,-2.32 c 5.08,-5.04 9.24,-8 9.24,-12.64 0,-4.08 -3.24,-7.24 -7.6,-7.24 -2.64,0 -5.24,1.04 -6.88,2.64 -0.6,0.6 -0.64,0.96 -0.64,1.72 0,1.36 0.2,2.04 1.16,2.04 1.36,0 1.64,-1.16 2.12,-1.8 0.88,-1.16 2.52,-1.88 4.16,-1.88 2.52,0 4.28,1.88 4.28,4.68 0,3.28 -3.28,6 -8.4,10.84 -2.76,2.64 -4.32,3.96 -4.32,5.32 0,1.2 0.68,1.72 2.04,1.72"
   style="fill:#d3d7cf;fill-rule:nonzero;stroke:#2e3436;stroke-width:1.81px;stroke-linejoin:miter" />
            </g>
        </g>
    </g>
</svg>
